X:1
L:1/4
M:4/4
K:C
|:"C" c3/2 G/ E2- | E2 (3c d c |"E7" B3/2 ^G/ E2- | E4 |"A7" A3/2 G/ E2- | E ^D (3E _B A | %6
w: All of me|* why not take|all of me?|_|Can't you see|_ I'm no good with-|
"Dm7" G2 F2- | F4 |"E7" E3/2 _E/ D2- | D2 (3E ^G B |"Am" d2 c2- | c4 |"D7" B3/2 _B/ A2- | %13
    